X: 1605
T: Joe Comini's Set Tune
B: australian traditional tunes wiki
M:4/4
L:1/8
R: Set Tune
Q: 1/4=100
K:G
V:1 
G2A2|:"G"dB GB d2-d>e|dB GB "D7"A3B|cc c>d ff f>e|dc BA "G"B2-B>c|
dB GB d/e/d/c/ dd|dB AG "C"E2 "D7"D2|FD FD FD Fz/E/|DD EF "G"G2"D7"A2:|
|:"G"B>F B>A Bd cB|"C"A2G2E2-E>G|"D7"A3z/G/ Ac BA|1"G"B6A2:|2"G"G2"D7"A2"G"G3z|:
GB GB GB d>A|"D7"FA FA FA c>A|"G"GB GB GBd2|1"D7"AB/c/ BA "G"B4:|2"D7"AB/c/ BA"G"G4||
% abcbook-tune_id 6342d53a8fb008dccb414749


% abcbook-boost 0
% abcbook-tablature 
% abcbook-transpose 
% abcbook-lastupdated 1665324373565
% abcbook-soundfonts 
% abcbook-repeats 1
% NFF Book 2009

